public/tel.svg

<svg fill="none" height="48" viewBox="0 0 48 48" width="48" xmlns="http://www.w3.org/2000/svg" xmlns:xlink="http://www.w3.org/1999/xlink"><linearGradient id="a" gradientUnits="userSpaceOnUse" x1="-3.23316" x2="58.3738" y1="10.5205" y2="32.8007"><stop offset=".00800497" stop-color="#38dbff"/><stop offset="1" stop-color="#243aff"/></linearGradient><circle cx="24" cy="24" fill="url(#a)" r="24"/><path d="m30.6334 17.9997-2.4973 12.7506s-.1074.5827-.83.5827c-.384 0-.582-.1827-.582-.1827l-5.4094-4.4886-2.6466-1.334-3.3967-.9034s-.6047-.1746-.6047-.6746c0-.4167.622-.6154.622-.6154l14.2107-5.6453s.434-.1567.7507-.156c.1946 0 .4166.0833.4166.3333 0 .1667-.0333.3334-.0333.3334z" fill="#fff"/><path d="m23.3334 28.3371-2.284 2.2494s-.0993.0766-.232.08c-.046.0013-.0953-.006-.146-.0287l.6427-3.9767z" fill="#b0bec5"/><path d="m27.9314 20.1306c-.1127-.1467-.3207-.1733-.4673-.062l-8.7974 5.2647s1.404 3.928 1.618 4.608c.2147.6806.3867.6966.3867.6966l.6427-3.9766 6.5546-6.064c.1467-.1114.174-.32.0627-.4667z" fill="#cfd8dc"/></svg>

<svg width="48" height="48" viewBox="0 0 48 48" fill="none" xmlns="http://www.w3.org/2000/svg">
<circle cx="24" cy="24" r="24" fill="url(#paint0_linear_145_823)"/>
<path d="M30.6334 17.9997L28.1361 30.7503C28.1361 30.7503 28.0287 31.333 27.3061 31.333C26.9221 31.333 26.7241 31.1503 26.7241 31.1503L21.3147 26.6617L18.6681 25.3277L15.2714 24.4243C15.2714 24.4243 14.6667 24.2497 14.6667 23.7497C14.6667 23.333 15.2887 23.1343 15.2887 23.1343L29.4994 17.489C29.4994 17.489 29.9334 17.3323 30.2501 17.333C30.4447 17.333 30.6667 17.4163 30.6667 17.6663C30.6667 17.833 30.6334 17.9997 30.6334 17.9997Z" fill="white"/>
<path d="M23.3334 28.3371L21.0494 30.5865C21.0494 30.5865 20.9501 30.6631 20.8174 30.6665C20.7714 30.6678 20.7221 30.6605 20.6714 30.6378L21.3141 26.6611L23.3334 28.3371Z" fill="#B0BEC5"/>
<path d="M27.9314 20.1306C27.8187 19.9839 27.6107 19.9573 27.4641 20.0686L18.6667 25.3333C18.6667 25.3333 20.0707 29.2613 20.2847 29.9413C20.4994 30.6219 20.6714 30.6379 20.6714 30.6379L21.3141 26.6613L27.8687 20.5973C28.0154 20.4859 28.0427 20.2773 27.9314 20.1306Z" fill="#CFD8DC"/>
<defs>
<linearGradient id="paint0_linear_145_823" x1="-3.23316" y1="10.5205" x2="58.3738" y2="32.8007" gradientUnits="userSpaceOnUse">
<stop offset="0.00800497" stop-color="#38DBFF"/>
<stop offset="1" stop-color="#243AFF"/>
</linearGradient>
</defs>
</svg>
